src/categories-icons-sprite/categories/svg-cat-home-shoes-care.svg

<svg width="32" height="20" viewBox="0 0 32 20" fill="none" xmlns="http://www.w3.org/2000/svg">
<path class="p-FFDC40" d="M7.51563 0C6.41106 0 5.51562 0.895431 5.51562 2V9.09091H25.5156V2C25.5156 0.89543 24.6202 0 23.5156 0H7.51563ZM21.8793 3.63636C21.8793 4.13844 21.4722 4.54545 20.9702 4.54545H10.0611C9.559 4.54545 9.15199 4.13844 9.15199 3.63636C9.15199 3.13429 9.559 2.72727 10.0611 2.72727H20.9702C21.4722 2.72727 21.8793 3.13429 21.8793 3.63636Z" fill="#76B7E2"/>
<path class="p-FFAB15" d="M15.5156 0V2.72727H20.9702C21.4722 2.72727 21.8793 3.13429 21.8793 3.63636C21.8793 4.13844 21.4722 4.54545 20.9702 4.54545H15.5156V9.09091H25.5156V2C25.5156 0.89543 24.6202 0 23.5156 0H15.5156Z" fill="#58ADE5"/>
<path class="p-76CC5B" d="M30.5887 20.0001H0.442383L1.95753 10.9092H29.0735L30.5887 20.0001Z" fill="#5FBEFF"/>
<path class="p-599944" d="M15.5156 20.0001H30.5888L29.0736 10.9092H15.5156V20.0001Z" fill="#4D98CB"/>
<path class="p-FFEA84" d="M31.0303 12.7273H0V9.27271C0 8.16814 0.895431 7.27271 2 7.27271H29.0303C30.1349 7.27271 31.0303 8.16814 31.0303 9.27271V12.7273Z" fill="#B9DFFC"/>
<path class="p-8FE673" d="M9.8501 15.5155C9.88502 15.0146 9.50728 14.5803 9.0064 14.5454C8.50554 14.5105 8.0712 14.8882 8.03629 15.3891L7.71484 19.9999H9.53745L9.8501 15.5155Z" fill="#B9DFFC"/>
<path class="p-8FE673" d="M14.2334 15.4755C14.2451 14.9736 13.8477 14.5572 13.3457 14.5456C12.8438 14.5339 12.4274 14.9313 12.4157 15.4333L12.3096 20.0001H14.1283L14.2334 15.4755Z" fill="#B9DFFC"/>
<path class="p-8FE673" d="M4.94859 20.0001L5.46529 15.5535C5.52324 15.0548 5.16591 14.6035 4.66717 14.5456C4.16845 14.4876 3.71719 14.845 3.65924 15.3437L3.11816 20.0001H4.94859Z" fill="#B9DFFC"/>
<path class="p-76CC5B" d="M18.6142 15.4333C18.6025 14.9313 18.1862 14.5339 17.6842 14.5456C17.1823 14.5572 16.7848 14.9736 16.7965 15.4755L16.9016 20.0001H18.7204L18.6142 15.4333Z" fill="#A1D1FD"/>
<path class="p-76CC5B" d="M22.9942 15.3891C22.9593 14.8882 22.525 14.5105 22.0241 14.5454C21.5232 14.5803 21.1455 15.0146 21.1804 15.5155L21.4931 19.9999H23.3157L22.9942 15.3891Z" fill="#A1D1FD"/>
<path class="p-76CC5B" d="M27.3709 15.3437C27.313 14.845 26.8617 14.4876 26.363 14.5456C25.8643 14.6035 25.5069 15.0548 25.5649 15.5535L26.0816 20.0001H27.912L27.3709 15.3437Z" fill="#A1D1FD"/>
<path class="p-FFDC40" d="M31.0308 12.7273H15.5156V7.27271H29.0308C30.1353 7.27271 31.0308 8.16814 31.0308 9.27271V12.7273Z" fill="#A1D1FD"/>
</svg>

<svg width="32" height="20" fill="none" xmlns="http://www.w3.org/2000/svg"><path class="p-FFDC40" d="M7.516 0a2 2 0 00-2 2v7.09h20V2a2 2 0 00-2-2h-16zm14.363 3.636a.91.91 0 01-.909.91H10.061a.91.91 0 110-1.819h10.91a.91.91 0 01.908.91z" fill="#76B7E2"/><path class="p-FFAB15" d="M15.516 0v2.727h5.454a.91.91 0 010 1.818h-5.454v4.546h10V2a2 2 0 00-2-2h-8z" fill="#58ADE5"/><path class="p-76CC5B" d="M30.589 20H.442l1.516-9.09h27.116L30.588 20z" fill="#5FBEFF"/><path class="p-599944" d="M15.516 20h15.073l-1.515-9.09H15.516V20z" fill="#4D98CB"/><path class="p-FFEA84" d="M31.03 12.727H0V9.273a2 2 0 012-2h27.03a2 2 0 012 2v3.454z" fill="#B9DFFC"/><path class="p-8FE673" d="M9.85 15.515a.91.91 0 10-1.814-.126L7.715 20h1.822l.313-4.483zM14.233 15.476a.909.909 0 10-1.817-.043L12.31 20h1.818l.105-4.524zM4.949 20l.516-4.447a.909.909 0 10-1.806-.21L3.12 20h1.83z" fill="#B9DFFC"/><path class="p-76CC5B" d="M18.614 15.433a.909.909 0 10-1.817.043L16.902 20h1.818l-.106-4.567zM22.994 15.39a.91.91 0 10-1.814.125L21.493 20h1.823l-.322-4.61zM27.37 15.344a.909.909 0 10-1.805.21L26.082 20h1.83l-.541-4.656z" fill="#A1D1FD"/><path class="p-FFDC40" d="M31.03 12.727H15.517V7.273H29.03a2 2 0 012 2v3.454z" fill="#A1D1FD"/></svg>
